src/images/icon/icon_switch_cost.svg

<svg height="32" viewBox="0 0 32 32" width="32" xmlns="http://www.w3.org/2000/svg"><g fill="none" fill-rule="evenodd"><circle cx="16" cy="16" r="15.5" stroke="#d8e2f1"/><g transform="translate(6 6)"><path d="m18 6.749.0009178 2.87770777c-.9852856-.70906756-2.1943291-1.12670777-3.5009178-1.12670777-3.3137085 0-6 2.6862915-6 6 0 1.3065887.41764021 2.5156322 1.12670777 3.5009178l-2.12670777-.0009178v-11.251zm-12-4.749v16h-2c-1.1045695 0-2-.8954305-2-2v-12c0-1.1045695.8954305-2 2-2zm10 0c1.1045695 0 2 .8954305 2 2v1.249h-10.5v-3.249z" fill="#36435c"/><path d="m14.5 10c2.4852814 0 4.5 2.0147186 4.5 4.5s-2.0147186 4.5-4.5 4.5-4.5-2.0147186-4.5-4.5 2.0147186-4.5 4.5-4.5zm-1.4286304 2.056732-1.0606601 1.0606601 2.2192905 2.2196079-1.1889604.0000621v1.5h3.75v-3.75h-1.5l-.0000396 1.1889379z" fill="#b6c2cd"/></g></g></svg>

<?xml version="1.0" encoding="UTF-8"?>
<svg width="32px" height="32px" viewBox="0 0 32 32" version="1.1" xmlns="http://www.w3.org/2000/svg" xmlns:xlink="http://www.w3.org/1999/xlink">
    <title>icon_switch_cost</title>
    <g id="Dashboard" stroke="none" stroke-width="1" fill="none" fill-rule="evenodd">
        <g id="01-开发环境-创建环境-创建隔离开发环境" transform="translate(-196.000000, -618.000000)">
            <g id="编组-12备份-4" transform="translate(160.000000, 72.000000)">
                <g id="编组-2" transform="translate(24.000000, 232.000000)">
                    <g id="编组-18" transform="translate(0.000000, 300.000000)">
                        <g id="编组-22" transform="translate(12.000000, 14.000000)">
                            <circle id="icon_switch_cost" stroke="#D8E2F1" cx="16" cy="16" r="15.5"></circle>
                            <g id="编组-15" transform="translate(6.000000, 6.000000)">
                                <path d="M18,6.749 L18.0009178,9.62670777 C17.0156322,8.91764021 15.8065887,8.5 14.5,8.5 C11.1862915,8.5 8.5,11.1862915 8.5,14.5 C8.5,15.8065887 8.91764021,17.0156322 9.62670777,18.0009178 L7.5,18 L7.5,6.749 L18,6.749 Z M6,2 L6,18 L4,18 C2.8954305,18 2,17.1045695 2,16 L2,4 C2,2.8954305 2.8954305,2 4,2 L6,2 Z M16,2 C17.1045695,2 18,2.8954305 18,4 L18,5.249 L7.5,5.249 L7.5,2 L16,2 Z" id="形状结合" fill="#36435C"></path>
                                <path d="M14.5,10 C16.9852814,10 19,12.0147186 19,14.5 C19,16.9852814 16.9852814,19 14.5,19 C12.0147186,19 10,16.9852814 10,14.5 C10,12.0147186 12.0147186,10 14.5,10 Z M13.0713696,12.056732 L12.0107095,13.1173921 L14.23,15.337 L13.0410396,15.3370621 L13.0410396,16.8370621 L16.7910396,16.8370621 L16.7910396,13.0870621 L15.2910396,13.0870621 L15.291,14.276 L13.0713696,12.056732 Z" id="形状结合" fill="#B6C2CD"></path>
                            </g>
                        </g>
                    </g>
                </g>
            </g>
        </g>
    </g>
</svg>
